web/packages/design/src/ResourceIcon/assets/bonusly.svg

<svg width="72" height="72" viewBox="0 0 72 72" fill="none" xmlns="http://www.w3.org/2000/svg">
<path d="M71.284 21.9725C70.0118 17.8337 67.382 14.2517 63.8243 11.8123C60.2067 9.31895 56.1936 7.46353 51.9571 6.32551C44.7958 4.36358 37.4292 3.26077 30.0105 3.04004H25.4971C23.9819 3.04004 22.5287 3.6458 21.4573 4.72405C20.3858 5.80231 19.7839 7.26474 19.7839 8.78962V20.2888C19.7839 24.9541 19.7839 29.217 20.0614 33.8743C20.3143 37.3157 21.6937 41.3898 24.7216 43.4185C26.0854 44.3933 27.6494 45.0471 29.2982 45.3315C30.9469 45.6159 32.638 45.5235 34.2463 45.0613C36.0084 44.4824 37.5945 43.4602 38.8542 42.0919C40.114 40.7235 41.0058 39.0541 41.445 37.2419C41.8897 35.4304 41.8666 33.5347 41.3781 31.7349C40.8895 29.9349 39.9516 28.2906 38.6536 26.9583C35.3891 23.566 31.3899 23.566 26.2479 23.6729V15.9027C26.2756 15.4509 26.3958 15.0098 26.6008 14.607C26.8059 14.2042 27.0914 13.8483 27.4396 13.5618C27.9158 13.2196 28.4866 13.0358 29.0719 13.0361C32.5987 12.8857 36.1157 13.5079 39.38 14.8595C43.4858 16.691 46.9738 19.6847 49.4189 23.4758C51.0018 26.196 51.979 29.2298 52.2832 32.3674C52.5874 35.505 52.2112 38.6717 51.1807 41.6487C50.1501 44.6257 48.4897 47.342 46.3142 49.6102C44.1387 51.8786 41.5 53.6445 38.5802 54.7862C35.5177 55.972 32.2247 56.4303 28.9573 56.1254C25.69 55.8204 22.5368 54.7607 19.7431 53.0285C9.13292 46.2933 9.27166 33.0693 9.3043 21.7509L9.41858 13.1182V13.069C9.41858 11.7548 8.27595 12.0915 7.78624 12.3297C6.3151 13.0246 5.02223 14.0503 4.00738 15.3277C1.02021 19.1306 0.318306 24.1492 0 28.8392V34.2521C0.154643 40.6589 1.32281 46.9999 3.46056 53.0368C5.00648 57.3196 7.60683 61.1374 11.0183 64.1334C14.4828 66.9622 18.7288 68.6484 23.1792 68.9631H27.4722C30.2237 68.7044 32.9402 68.1537 35.5768 67.3204C42.9822 64.9199 49.8284 61.0363 55.7034 55.9033C61.8188 50.8233 66.7035 44.4075 69.9863 37.1433C72.1135 32.3802 72.5712 27.0315 71.284 21.9725Z" fill="#22BA50"/>
</svg>

<svg xmlns="http://www.w3.org/2000/svg" width="72" height="72" fill="none" viewBox="0 0 72 72"><path fill="#22ba50" d="M71.284 21.973a19.13 19.13 0 0 0-7.46-10.16 38.5 38.5 0 0 0-11.867-5.487A93.6 93.6 0 0 0 30.011 3.04h-4.514a5.7 5.7 0 0 0-4.04 1.684 5.77 5.77 0 0 0-1.673 4.066v11.499c0 4.665 0 8.928.277 13.585.253 3.442 1.633 7.516 4.66 9.545a11.09 11.09 0 0 0 9.525 1.643 10.9 10.9 0 0 0 4.608-2.97 11 11 0 0 0 2.591-4.85 11 11 0 0 0-.067-5.507 10.96 10.96 0 0 0-2.724-4.777c-3.265-3.392-7.264-3.392-12.406-3.285v-7.77a3.3 3.3 0 0 1 1.192-2.341 2.8 2.8 0 0 1 1.632-.526A24.2 24.2 0 0 1 39.38 14.86a23.2 23.2 0 0 1 10.039 8.616 21.91 21.91 0 0 1 1.762 18.173 21.8 21.8 0 0 1-4.867 7.961 21.6 21.6 0 0 1-7.734 5.176 21.2 21.2 0 0 1-18.837-1.758C9.133 46.294 9.272 33.07 9.304 21.752l.115-8.633v-.049c0-1.314-1.143-.978-1.633-.74a10.6 10.6 0 0 0-3.779 2.999C1.02 19.13.318 24.149 0 28.839v5.413a60.7 60.7 0 0 0 3.46 18.785 26.94 26.94 0 0 0 7.558 11.096 21.64 21.64 0 0 0 12.161 4.83h4.293a39 39 0 0 0 8.105-1.643 57.6 57.6 0 0 0 20.126-11.417 52.5 52.5 0 0 0 14.283-18.76 23.2 23.2 0 0 0 1.298-15.17"/></svg>
